public/illustrations/book-2.svg

<svg width="296" height="342" viewBox="0 0 296 342" fill="none" xmlns="http://www.w3.org/2000/svg">
<path d="M37.8266 81.9917C40.7433 78.5512 43.3768 75.2805 46.1944 72.2789C57.4222 59.9892 71.6518 53.0798 87.198 48.0252C98.4966 44.4147 110.05 41.9087 121.717 40.5353C122.566 40.4504 123.543 40.3371 124.803 40.0681C125.186 36.8965 125.681 33.5693 126.049 30.2562C126.417 26.943 127.706 24.3804 130.991 23.0495C134.275 21.7186 136.017 22.0866 138.396 24.4086C139.358 25.4422 140.179 26.5041 141.015 27.6935C163.527 57.4973 186.167 87.287 208.693 117.232C212.672 122.514 213.323 128.701 213.422 135.101C213.677 147.036 214.088 158.944 214.343 170.88C214.541 182.249 214.866 193.462 215.079 204.832C215.305 212.35 215.546 220.01 215.758 227.542C215.985 239.195 216.381 250.975 216.608 262.613C216.82 269.99 217.047 277.522 217.245 284.899C217.514 295.546 217.925 306.179 218.194 316.826C218.378 318.511 217.981 320.267 217.004 321.796C216.027 323.325 214.711 324.316 212.927 324.925C200.071 329.98 187.243 335.176 174.401 340.372C171.937 341.349 169.12 341.646 166.486 340.924C154.749 337.611 142.898 334.581 131.16 331.268C90.3694 319.771 49.5926 308.402 8.94307 296.891C7.7679 296.594 6.45101 296.155 5.26168 295.716C1.41053 294.272 -0.132708 291.865 0.00887812 287.73C1.70792 257.941 3.39275 228.009 5.09179 198.206C6.6634 171.276 8.09358 144.36 9.67935 117.572C10.4014 105.537 11.265 93.4885 11.7039 81.482C11.8597 76.2008 16.2772 73.5957 21.077 75.7903C26.3298 78.3671 32.2057 80.0236 38.1099 82.105L37.8126 81.9917H37.8266ZM160.03 136.446C153.121 133.048 25.183 89.0144 22.1955 89.0569C18.4293 154.654 14.6772 220.265 10.9251 286.003L162.777 328.649C161.828 264.255 160.922 200.428 160.016 136.46L160.03 136.446ZM173.906 328.762C184.822 324.33 194.789 320.295 204.771 316.401C206.541 315.651 206.824 314.334 206.796 312.635C206.57 305.117 206.329 297.457 206.116 289.925C205.904 282.393 205.663 274.874 205.479 267.639C205.267 256.128 204.885 244.49 204.672 232.979C204.375 222.049 204.078 211.118 203.78 200.188C203.54 188.394 203.129 176.486 202.888 164.692C202.747 156.593 202.605 148.495 202.322 140.41C202.251 138.428 202.067 136.587 201.996 134.605C201.784 132.637 201.897 130.91 201.812 128.786L170.989 136.162C171.923 200.414 172.801 264.1 173.792 328.776H173.934L173.906 328.762ZM79.0426 62.4104L79.1558 63.543L178.691 121.806C177.827 120.333 176.822 118.875 175.42 117.742C154.72 98.2883 133.893 78.9901 113.448 59.3521C109.172 55.2461 105.448 53.6462 99.8274 55.7983C93.1162 58.361 86.0652 60.2441 79.0284 62.4104H79.0426ZM66.951 69.249C60.2965 73.6523 54.4772 79.2449 49.7482 85.7296C57.5496 89.4674 156.066 123.207 158.756 123.066C128.258 105.212 97.9018 87.3437 66.951 69.249ZM121.929 51.9188C123.048 53.0798 123.699 53.8727 124.336 54.5099C141.879 71.0188 159.265 87.4144 176.794 103.796L191.335 117.501C192.439 118.521 193.558 119.682 195.129 118.379C195.087 117.955 194.761 117.558 194.591 117.303C178.054 95.5556 161.658 73.6523 145.262 51.8905C144.908 51.2109 144.286 50.7154 143.535 50.3614C142.785 50.0074 142.063 49.9508 141.369 50.0216C137.56 50.418 133.723 50.4038 129.759 50.6728C127.224 50.9419 124.718 51.4941 121.773 51.9472H121.915L121.929 51.9188Z" fill="#102185"/>
<path d="M295.09 57.5958C295.019 58.7285 294.665 59.8895 294.155 60.909C293.645 61.9284 292.852 62.8345 291.904 63.4575C288.265 66.6573 284.796 70.1262 281.469 73.7366C274.177 82.1185 268.825 91.9587 265.781 102.634C264.606 106.684 263.431 110.719 262.27 114.91C261.916 116.071 261.548 117.076 261.052 118.11C260.557 119.143 259.736 119.894 258.787 120.517C257.824 120.998 256.706 121.21 255.559 121.14C254.568 121.196 253.548 120.701 252.656 120.035C251.764 119.37 251.283 118.563 250.943 117.586C250.405 115.773 250.009 113.82 249.754 111.979C247.814 101.176 246.582 90.1889 242.405 79.7965C239.715 72.8729 234.604 68.2148 228.303 64.7742C227.567 64.3919 226.562 64.1654 225.826 63.6415C225.089 63.2593 224.367 62.877 223.9 62.1973C223.291 61.5319 222.966 60.8381 222.767 60.0028C222.569 59.1674 222.668 58.3037 222.626 57.5958C222.852 56.7321 223.093 56.01 223.631 55.4012C224.679 53.9146 226.151 52.5553 227.638 51.3235C239.857 42.347 246.356 30.1847 248.423 15.3041C248.805 12.1608 249.598 8.98932 250.263 5.83195C250.589 4.1046 251.339 2.64625 252.699 1.57019C254.058 0.494139 255.729 -0.0296949 257.286 0.0127809C258.843 -0.0863293 260.429 0.395039 261.619 1.31535C262.808 2.23566 263.742 3.5949 264.125 5.13819C265.526 9.45656 266.348 13.8032 267.891 17.9659C269.76 23.1055 271.926 28.2167 274.206 33.1864C277.674 41.2002 283.565 47.2317 290.814 52.0315C291.848 52.6828 292.881 53.4615 293.518 54.4243C294.283 55.3729 294.792 56.6188 294.849 57.7515L295.118 57.5958H295.09ZM280.492 57.9215C268.939 49.8369 263.629 37.2499 258.32 24.5213C255.417 37.3207 248.295 48.6759 238.314 57.0861C243.694 61.5885 248.777 65.8078 251.41 71.896C254.044 77.9842 255.715 84.2564 257.937 90.5004C261.137 84.9219 264.04 78.9186 267.693 73.595C271.346 68.2714 275.99 63.1601 280.492 57.7799V57.9215Z" fill="#102185"/>
<path d="M131.812 175.31C132.194 178.977 130.622 181.554 127.805 181.852C125.978 182.05 124.237 181.795 122.623 181.257C97.5335 172.804 72.2887 164.352 47.1854 155.757C45.8545 155.332 44.5236 154.752 43.306 154.03C42.2441 153.435 41.5786 152.501 41.1822 151.411C40.7857 150.32 40.7998 149.174 41.1113 147.998C41.4086 146.823 42.159 145.747 43.2209 145.068C44.2828 144.388 45.5429 144.105 46.6897 144.275C48.1339 144.402 49.4507 144.841 50.7816 145.266C75.715 153.605 100.535 162.086 125.468 170.426C126.785 170.709 127.96 171.162 129.036 171.898C130.141 172.917 131.104 173.951 131.939 175.154L131.812 175.31Z" fill="#102185"/>
<path d="M125.723 201.292C126.148 205.369 123.585 208.06 120.031 208.017C118.587 207.89 117.285 207.592 115.94 207.026C92.2239 199.564 68.5081 191.947 44.7782 184.344C43.6031 184.046 42.2721 183.466 41.2102 182.871C40.1483 182.277 39.1998 181.371 38.8033 180.28C38.2653 179.204 38.2653 177.916 38.4352 176.755C38.7325 175.58 39.4829 174.504 40.5448 173.824C41.6067 173.144 42.8528 172.734 43.9996 172.89C45.3022 173.031 46.5905 173.187 47.7799 173.626C71.6513 181.215 95.5088 188.804 119.38 196.407C120.697 196.69 122.028 197.271 123.26 198.134C124.208 199.026 125.171 200.074 125.865 201.278H125.723V201.292Z" fill="#102185"/>
<path d="M88.2869 280.977C89.8868 281.231 90.7505 281.43 91.4867 281.642L117.34 289.16C118.516 289.458 119.832 289.896 120.88 290.35C121.928 290.803 122.862 291.567 123.4 292.643C123.938 293.719 124.066 294.852 123.896 296.013C123.726 297.174 123.146 298.363 122.239 299.185C121.333 300.006 120.101 300.544 118.969 300.53C117.836 300.643 116.689 300.487 115.514 300.176C107.458 298.038 99.543 295.886 91.4726 293.606C89.009 293.153 86.8853 291.95 85.3986 289.982C84.2093 288.113 83.5579 286.045 84.7897 284.205C85.795 282.959 86.9702 281.982 88.3152 281.132V280.991L88.2869 280.977Z" fill="#102185"/>
</svg>

<svg xmlns="http://www.w3.org/2000/svg" width="296" height="342" fill="none" viewBox="0 0 296 342"><path fill="#102185" d="M37.827 81.992c2.916-3.44 5.55-6.712 8.367-9.713 11.228-12.29 25.458-19.2 41.004-24.254a184 184 0 0 1 34.519-7.49 27 27 0 0 0 3.086-.467c.383-3.171.878-6.499 1.246-9.812s1.657-5.876 4.942-7.207c3.284-1.33 5.026-.962 7.405 1.36.962 1.033 1.783 2.095 2.619 3.285 22.512 29.803 45.152 59.593 67.678 89.538 3.979 5.282 4.63 11.469 4.729 17.869.255 11.935.666 23.843.921 35.779.198 11.369.523 22.582.736 33.952.226 7.518.467 15.178.679 22.71.227 11.653.623 23.433.85 35.071.212 7.377.439 14.909.637 22.286.269 10.647.68 21.28.949 31.927.184 1.685-.213 3.441-1.19 4.97s-2.293 2.52-4.077 3.129c-12.856 5.055-25.684 10.251-38.526 15.447-2.464.977-5.281 1.274-7.915.552-11.737-3.313-23.588-6.343-35.326-9.656-40.79-11.497-81.567-22.866-122.217-34.377-1.175-.297-2.492-.736-3.681-1.175-3.851-1.444-5.395-3.851-5.253-7.986 1.699-29.789 3.384-59.721 5.083-89.524 1.571-26.93 3.002-53.846 4.587-80.634.722-12.035 1.586-24.083 2.025-36.09.156-5.281 4.573-7.886 9.373-5.692 5.253 2.577 11.129 4.234 17.033 6.315l-.297-.113zm122.203 54.454c-6.909-3.398-134.847-47.432-137.834-47.39-3.767 65.598-7.519 131.209-11.27 196.947l151.851 42.646c-.949-64.394-1.855-128.221-2.761-192.189zm13.876 192.316c10.916-4.432 20.883-8.467 30.865-12.361 1.77-.75 2.053-2.067 2.025-3.766-.226-7.518-.467-15.178-.68-22.71-.212-7.532-.453-15.051-.637-22.286-.212-11.511-.594-23.149-.807-34.66l-.892-32.791c-.24-11.794-.651-23.702-.892-35.496-.141-8.099-.283-16.197-.566-24.282-.071-1.982-.255-3.823-.326-5.805-.212-1.968-.099-3.695-.184-5.819l-30.823 7.376c.934 64.252 1.812 127.938 2.803 192.614h.142zM79.043 62.41l.113 1.133 99.535 58.263c-.864-1.473-1.869-2.931-3.271-4.064-20.7-19.454-41.527-38.752-61.972-58.39-4.276-4.106-8-5.706-13.62-3.554-6.712 2.563-13.763 4.446-20.8 6.612zM66.95 69.25c-6.654 4.403-12.474 9.996-17.203 16.48 7.802 3.738 106.318 37.478 109.008 37.337-30.498-17.854-60.854-35.722-91.805-53.817m54.978-17.33c1.119 1.16 1.77 1.954 2.407 2.59 17.543 16.51 34.929 32.905 52.458 49.287l14.541 13.705c1.104 1.02 2.223 2.181 3.794.878-.042-.424-.368-.821-.538-1.076-16.537-21.747-32.933-43.65-49.329-65.412-.354-.68-.976-1.176-1.727-1.53-.75-.354-1.472-.41-2.166-.34-3.809.397-7.646.383-11.61.652-2.535.269-5.041.821-7.986 1.274h.142zM295.09 57.596c-.071 1.133-.425 2.294-.935 3.313a6.64 6.64 0 0 1-2.251 2.549c-3.639 3.2-7.108 6.668-10.435 10.279a75.56 75.56 0 0 0-15.688 28.897c-1.175 4.05-2.35 8.085-3.511 12.276-.354 1.161-.722 2.166-1.218 3.2-.495 1.033-1.316 1.784-2.265 2.407-.963.481-2.081.693-3.228.623-.991.056-2.011-.439-2.903-1.105s-1.373-1.472-1.713-2.449c-.538-1.813-.934-3.766-1.189-5.607-1.94-10.803-3.172-21.79-7.349-32.183-2.69-6.923-7.801-11.581-14.102-15.022-.736-.382-1.741-.609-2.477-1.133-.737-.382-1.459-.764-1.926-1.444-.609-.665-.934-1.359-1.133-2.194-.198-.836-.099-1.7-.141-2.407.226-.864.467-1.586 1.005-2.195 1.048-1.486 2.52-2.846 4.007-4.078 12.219-8.976 18.718-21.138 20.785-36.019.382-3.143 1.175-6.315 1.84-9.472.326-1.727 1.076-3.186 2.436-4.262s3.03-1.6 4.587-1.557c1.557-.1 3.143.382 4.333 1.302a7.05 7.05 0 0 1 2.506 3.823c1.401 4.319 2.223 8.665 3.766 12.828 1.869 5.14 4.035 10.25 6.315 15.22 3.468 8.014 9.359 14.046 16.608 18.846 1.034.65 2.067 1.43 2.704 2.392.765.949 1.274 2.195 1.331 3.328l.269-.156zm-14.598.326c-11.553-8.085-16.863-20.672-22.172-33.4-2.903 12.799-10.025 24.154-20.006 32.564 5.38 4.503 10.463 8.722 13.096 14.81s4.305 12.36 6.527 18.604c3.2-5.578 6.103-11.581 9.756-16.905s8.297-10.435 12.799-15.815z"/><path fill="#102185" d="M131.812 175.31c.382 3.667-1.19 6.244-4.007 6.542-1.827.198-3.568-.057-5.182-.595-25.09-8.453-50.334-16.905-75.438-25.5a19 19 0 0 1-3.879-1.727c-1.062-.595-1.727-1.529-2.124-2.619-.396-1.091-.382-2.237-.07-3.413a4.94 4.94 0 0 1 2.109-2.93c1.062-.68 2.322-.963 3.469-.793 1.444.127 2.76.566 4.092.991 24.933 8.339 49.753 16.82 74.686 25.16 1.317.283 2.492.736 3.568 1.472 1.105 1.019 2.068 2.053 2.903 3.256zM125.723 201.292c.425 4.077-2.138 6.768-5.692 6.725-1.444-.127-2.746-.425-4.091-.991-23.716-7.462-47.432-15.079-71.162-22.682-1.175-.298-2.506-.878-3.568-1.473-1.062-.594-2.01-1.5-2.407-2.591-.538-1.076-.538-2.364-.368-3.525a4.95 4.95 0 0 1 2.11-2.931c1.062-.68 2.308-1.09 3.455-.934 1.302.141 2.59.297 3.78.736 23.871 7.589 47.729 15.178 71.6 22.781 1.317.283 2.648.864 3.88 1.727.948.892 1.911 1.94 2.605 3.144h-.142zM88.287 280.977c1.6.254 2.463.453 3.2.665l25.853 7.518c1.176.298 2.492.736 3.54 1.19s1.982 1.217 2.52 2.293.666 2.209.496 3.37-.75 2.35-1.657 3.172c-.906.821-2.138 1.359-3.27 1.345-1.133.113-2.28-.043-3.455-.354a1555 1555 0 0 1-24.041-6.57c-2.464-.453-4.588-1.656-6.074-3.624-1.19-1.869-1.841-3.937-.61-5.777 1.006-1.246 2.181-2.223 3.526-3.073v-.141z"/></svg>
